#define trap_width 64
#define trap_height 64
static char trap_bits[] = {
 0xff,0xff,0xff,0xff,0xff,0xff,0xff,0xff,0xff,0xf7,0x6e,0xdb,0xb6,0xed,0xee,
 0xff,0xdb,0xde,0xfb,0xbf,0xfb,0xbf,0xff,0xda,0xff,0x7f,0xbf,0xea,0xae,0xf6,
 0xb6,0xff,0xee,0xf6,0xed,0xff,0xfb,0xff,0xff,0xef,0xbf,0xdf,0xdf,0xaa,0xae,
 0xaa,0xdb,0xfd,0xfb,0xfd,0x76,0xff,0xfb,0xff,0x7e,0xbf,0xff,0xb7,0xdf,0xab,
 0xae,0xda,0xfb,0xf7,0x6f,0xff,0x75,0xb5,0xf5,0x7f,0xef,0xfe,0xfd,0x6d,0xdf,
 0x5e,0xad,0xea,0xff,0xdb,0xdf,0xff,0x75,0xeb,0xb6,0xbd,0xb5,0xff,0x7b,0x5b,
 0xaf,0x55,0x55,0x6b,0xff,0xee,0xff,0xff,0xb5,0xaa,0x6a,0xdd,0xdb,0xff,0xef,
 0xd6,0xde,0xaa,0xaa,0xea,0xfe,0xbb,0xbd,0xbf,0x55,0x55,0x55,0x5b,0xd7,0xfe,
 0xff,0xed,0xae,0x4a,0x52,0xad,0xfd,0xef,0xdb,0x7b,0xb3,0x2a,0x95,0xea,0x6e,
 0xfb,0x7f,0xaf,0x4d,0x91,0x40,0xa9,0xf5,0xbf,0xed,0x7b,0x55,0x4a,0x2a,0xaa,
 0xbe,0xf6,0xff,0xd6,0x2a,0x81,0x44,0x55,0xeb,0xff,0xb7,0x6f,0xab,0x2a,0x91,
 0xa8,0x75,0xdb,0xfe,0xba,0x14,0x10,0x0a,0xa5,0xde,0xff,0xdb,0xd7,0x4a,0xa5,
 0x50,0x52,0x75,0xdb,0x7f,0x5d,0x25,0x48,0x25,0xa8,0xda,0xff,0xef,0xaf,0x4a,
 0xa5,0x4a,0x45,0xed,0xda,0x7b,0xb5,0x22,0x92,0xaa,0x20,0xb5,0xff,0xdf,0xaf,
 0x14,0xa9,0x2a,0x95,0x6a,0xdb,0x7b,0xb5,0xa2,0xb4,0xad,0x48,0xb5,0xff,0xef,
 0xae,0x0a,0x55,0xab,0xa2,0xda,0xda,0xfd,0x55,0xa1,0xea,0x5d,0x89,0xea,0xff,
 0xaf,0x5b,0x15,0x54,0xab,0x24,0xad,0xda,0xff,0xae,0x44,0xdb,0xbd,0x92,0xd4,
 0xff,0xb5,0xb5,0x92,0xea,0xae,0x44,0x75,0xb5,0xff,0x57,0x49,0x5a,0xd7,0x92,
 0xaa,0xff,0xaf,0x5a,0x25,0xea,0x3a,0x49,0xda,0xda,0xfd,0x57,0x89,0xaa,0xad,
 0x22,0xb5,0xff,0x77,0xad,0x44,0x54,0xab,0x48,0xd5,0xda,0xdf,0xb7,0x92,0x6a,
 0x55,0x22,0xb5,0xff,0x7d,0xad,0x4a,0xa8,0x95,0x94,0xda,0xb5,0xef,0x77,0x25,
 0x45,0x2a,0xa1,0x6a,0xff,0x7d,0x5b,0x95,0x28,0x45,0x4a,0xb5,0xdb,0xef,0x6e,
 0x25,0x92,0x90,0x50,0xdd,0xfe,0xff,0x5b,0x55,0x21,0x25,0xaa,0xea,0xdb,0xb5,
 0xee,0x2a,0x8a,0x88,0xa4,0xb6,0xfe,0xff,0x5b,0x4b,0x21,0x52,0x52,0xdb,0xd7,
 0xbf,0x7f,0x55,0x95,0x04,0x55,0x75,0xfd,0xeb,0xaa,0x55,0x4a,0xb2,0xaa,0xde,
 0xdf,0xff,0x7f,0x5b,0x29,0x49,0xb5,0xeb,0xf6,0x7d,0xdb,0x6d,0xa5,0x2a,0x55,
 0xbd,0xdf,0xd7,0x77,0xab,0x5a,0xd5,0xea,0xee,0xfd,0xff,0xde,0xbd,0xa5,0xaa,
 0xb6,0x75,0xdf,0xfd,0x7b,0xd7,0xb6,0xaa,0x5a,0xdf,0xf7,0xb7,0xdf,0x6d,0x55,
 0xb5,0xed,0x75,0xdd,0xff,0x7b,0xbb,0xdb,0xd6,0x76,0xff,0xff,0xdd,0xee,0xdf,
 0x6d,0x6b,0xad,0x6d,0xef,0xf7,0xbf,0xb5,0xb6,0xbd,0xf7,0xf7,0xbd,0xff,0x76,
 0xff,0xdb,0xd6,0xba,0xbe,0xff,0xbd,0xff,0xab,0x6e,0x7b,0xef,0xed,0xed,0xef,
 0xdb,0xfe,0xbb,0xd7,0xbb,0xbf,0xff,0x7f,0xff,0xdb,0xee,0xfd,0xee,0xf6,0xdb,
 0xf7,0x6d,0xbf,0xbb,0xae,0xfb,0xff,0xfe,0xdd,0xff,0xed,0xef,0xf7,0xbe,0xb6,
 0xef,0x7f,0xb7,0x7f,0x7d,0xbd,0xef,0xff,0xbf,0xff,0xff,0xdb,0xd7,0xef,0xfa,
 0x6d,0xfb};
